public/assets/images/field-m02.svg

<svg width="18" height="18" viewBox="0 0 18 18" fill="none" xmlns="http://www.w3.org/2000/svg">
<path d="M15.9873 14.1638L15.9835 14.1524L15.9792 14.1412L11.8153 3.40399C11.7374 3.18531 11.6303 2.97202 11.4719 2.80943C11.2587 2.57741 10.9706 2.5 10.7003 2.5H8.82967C8.55936 2.5 8.27131 2.57741 8.05813 2.80943C7.89973 2.97202 7.79257 3.1853 7.71465 3.40398L3.55083 14.1412L3.54648 14.1524L3.54268 14.1638C3.51052 14.2603 3.5 14.3555 3.5 14.441C3.5 14.7025 3.60106 14.9362 3.78255 15.1176C3.96404 15.299 4.19773 15.4 4.45916 15.4H5.68358C5.94915 15.4 6.27858 15.3522 6.51324 15.1176L6.52363 15.1072L6.5334 15.0962C6.64883 14.9664 6.75126 14.819 6.81386 14.6535L7.42054 13.088H12.1095L12.7161 14.6535C12.7787 14.819 12.8812 14.9664 12.9966 15.0962L13.0064 15.1072L13.0168 15.1176C13.2514 15.3522 13.5809 15.4 13.8464 15.4H15.0708C15.3323 15.4 15.566 15.299 15.7474 15.1176C15.9289 14.9362 16.03 14.7025 16.03 14.441C16.03 14.3555 16.0195 14.2603 15.9873 14.1638ZM8.62337 9.963L9.765 7.00618L10.9066 9.963H8.62337Z" stroke="#4F66EE"/>
<path d="M9.5 8H10L10.5 10H9L9.5 8Z" fill="#4F66EE"/>
</svg>

<svg width="18" height="18" fill="none" xmlns="http://www.w3.org/2000/svg"><path d="M15.987 14.164l-.004-.012-.004-.01-4.164-10.738a1.626 1.626 0 00-.343-.595c-.213-.232-.501-.309-.772-.309H8.83c-.27 0-.559.077-.772.31a1.626 1.626 0 00-.343.594L3.55 14.141l-.005.011-.003.012a.94.94 0 00.24.954.941.941 0 00.676.282h1.225c.265 0 .595-.048.83-.282l.01-.01.01-.012c.115-.13.217-.277.28-.443l.607-1.565h4.689l.606 1.566c.063.165.165.312.28.442l.01.011.01.01c.235.235.565.283.83.283h1.225a.94.94 0 00.676-.282.94.94 0 00.24-.954zM8.623 9.963l1.142-2.957 1.142 2.957H8.623z" stroke="#4F66EE"/><path d="M9.5 8h.5l.5 2H9l.5-2z" fill="#4F66EE"/></svg>
